X: 22
T:Jackson's Welcome Home (#132)
M:6/8
L:1/8
S:Sergt. James O'Neill manuscripts
K:G
d|gfg efg|dec BAG|gfg efg|dBG A3|
gfg efg|dec BAG|AFA BGB|cAF G2:|
|:A|DED cAA|Bdg dBG|DED cAA|dBG A3|
DED cAA|Bcd efg|dec BcA|BGG G2:||

